icons/ruff.svg

<svg xmlns="http://www.w3.org/2000/svg" viewBox="0 0 32 32"><path fill="#43a047" d="M26 16a2 2 0 0 0 2-2V6a2 2 0 0 0-2-2H4v24h10v-8h2v8h12V18h-6v-2Zm-8-2h-6v-2h6Z"/></svg>

<svg xmlns="http://www.w3.org/2000/svg" viewBox="0 0 32 32"><path d="M26,16a2,2,0,0,0,2-2V6a2,2,0,0,0-2-2H4V28H14V20h2v8H28V18H22V16Zm-8-2H12V12h6Z" style="fill:#43a047"/></svg>
